brandFactory_export/2.Regular/Documento_Archivo JPEG_2Regular.svg

<?xml version="1.0" encoding="UTF-8"?>
<svg width="24px" height="24px" viewBox="0 0 24 24" version="1.1" xmlns="http://www.w3.org/2000/svg" xmlns:xlink="http://www.w3.org/1999/xlink">
    <title>2.Regular/Documento_Archivo JPEG_2Regular</title>
    <g id="Symbols" stroke="none" stroke-width="1" fill="none" fill-rule="evenodd">
        <g id="2.Regular/Documento_Archivo-JPEG_2Regular" fill="#5CB615" fill-rule="nonzero">
            <path d="M16.2117647,0.0302521008 C16.487395,0.0302521008 16.7462185,0.134453782 16.9445378,0.322689076 L23.3042017,6.48067227 C23.4352941,6.60840336 23.512605,6.77310924 23.5663866,6.94453782 C23.6033613,7.03193277 23.6235294,7.12941176 23.6235294,7.2302521 L23.6235294,21.9966387 C23.6235294,22.897479 22.8504202,23.6571429 21.9327731,23.6571429 L7.31428571,23.6571429 C6.41344538,23.6571429 5.62352941,22.8806723 5.62352941,21.9966387 L5.66386555,18.6689076 L2.90420168,18.6689076 C1.30420168,18.6689076 2.19149143e-10,17.3613445 2.19149143e-10,15.7579832 L2.19149143e-10,10.8470588 C2.19149143e-10,9.24369748 1.30420168,7.93613445 2.90420168,7.93613445 L5.62352941,7.93613445 L5.62352941,1.6907563 C5.62352941,0.820168067 6.4302521,0.0302521008 7.31428571,0.0302521008 L16.2117647,0.0302521008 Z M15.1563025,1.49243697 L7.31428571,1.49243697 C7.22689076,1.49243697 7.08907563,1.62352941 7.08235294,1.69411765 L7.08235294,7.93613445 L14.7193277,7.93613445 C16.3226891,7.93613445 17.6235294,9.24369748 17.6235294,10.8470588 L17.6235294,15.7579832 C17.6235294,17.3613445 16.3226891,18.6689076 14.7193277,18.6689076 L7.12268908,18.6689076 L7.08235294,22.0033613 C7.08235294,22.0638655 7.20336134,22.194958 7.31428571,22.194958 L21.9327731,22.194958 L21.9327731,22.1983193 C22.0504202,22.1983193 22.1647059,22.0840336 22.1647059,21.9966387 L22.1647059,8.27563025 L19.3882353,8.27563025 C18.1714286,8.27563025 17.1226891,7.8789916 16.3495798,7.13277311 C15.5697479,6.37647059 15.1563025,5.34789916 15.1563025,4.15462185 L15.1563025,1.49243697 Z M14.7193277,9.39831933 L2.90420168,9.39831933 C2.10420168,9.39831933 1.45546219,10.0504202 1.45546219,10.8504202 L1.45546219,15.7613445 C1.45546219,16.5613445 2.10420168,17.2134454 2.90420168,17.2134454 L14.7193277,17.2134454 C15.5193277,17.2134454 16.1680672,16.5613445 16.1680672,15.7613445 L16.1680672,10.8504202 C16.1680672,10.0504202 15.5193277,9.39831933 14.7193277,9.39831933 Z M4.28907563,11.3983193 L4.28907563,14.1747899 C4.28907563,14.6588235 4.20840336,14.9210084 4.01008403,15.1193277 C3.83193277,15.2907563 3.54957983,15.3714286 3.1092437,15.3714286 C2.91764706,15.3714286 2.78991597,15.3579832 2.51092437,15.3210084 L2.44705882,14.6420168 C2.62521008,14.6756303 2.82352941,14.6890756 2.90756303,14.6890756 C3.28403361,14.6890756 3.40168067,14.5882353 3.40168067,14.1546218 L3.40168067,11.3983193 L4.28907563,11.3983193 Z M13.7647059,11.3243697 C14.1512605,11.3243697 14.6117647,11.405042 14.8638655,11.512605 L14.7495798,12.1613445 C14.4705882,12.0806723 14.1344538,12.0201681 13.8285714,12.0201681 C13.0420168,12.0201681 12.7193277,12.487395 12.7193277,13.3344538 C12.7193277,13.7714286 12.7764706,14.1310924 12.9478992,14.3697479 C13.0890756,14.5680672 13.3243697,14.6823529 13.7008403,14.6823529 C13.8420168,14.6823529 14.0369748,14.6655462 14.1747899,14.6420168 L14.1747899,13.8218487 L13.6268908,13.8218487 L13.6268908,13.1831933 L15.0554622,13.1831933 L15.0554622,15.1697479 C14.6857143,15.2840336 14.0941176,15.3680782 13.6672269,15.3680782 C12.2689076,15.3714286 11.794958,14.6016807 11.794958,13.3680672 C11.794958,12.1512605 12.4369748,11.3243697 13.7647059,11.3243697 Z M6.45378151,11.3983193 C7.06218487,11.3983193 7.4487395,11.4823529 7.70084034,11.7176471 C7.91260504,11.912605 8.01344538,12.2117647 8.01344538,12.6285714 C8.01344538,13.0453782 7.91596639,13.3579832 7.72436975,13.5731092 C7.49579832,13.8285714 7.14285714,13.9495798 6.63193277,13.9495798 L6.00672269,13.9495798 L6.00672269,15.2941176 L5.11932773,15.2941176 L5.11932773,11.3983193 L6.45378151,11.3983193 Z M11.2672269,11.3983193 L11.2,12.0403361 L9.52605042,12.0403361 L9.52605042,12.9848739 L10.8638655,12.9848739 L10.8638655,13.6504202 L9.52605042,13.6504202 L9.52605042,14.6453782 L11.297479,14.6453782 L11.297479,15.287395 L8.63865546,15.287395 L8.63865546,11.3983193 L11.2672269,11.3983193 Z M6.41680672,12.0403361 L6,12.0403361 L6,13.2806723 L6.44033613,13.2806723 C6.72605042,13.2806723 6.84369748,13.2403361 6.95798319,13.1327731 C7.05882353,13.0319328 7.11260504,12.8638655 7.11260504,12.6386555 C7.11260504,12.4268908 7.06554622,12.2756303 6.96470588,12.1781513 C6.85714286,12.0806723 6.69243698,12.0403361 6.41680672,12.0403361 Z M16.6184874,2.03361345 L16.6184874,4.1512605 C16.6184874,4.94117647 16.8773109,5.60672269 17.3647059,6.08067227 C17.8621849,6.56134454 18.5613445,6.81344538 19.3915966,6.81344538 L21.553,6.8132521 L16.6184874,2.03361345 Z" id="Documento_Archivo-JPEG_2Regular"></path>
        </g>
    </g>
</svg>

<svg width="24" height="24" viewBox="0 0 24 24" xmlns="http://www.w3.org/2000/svg"><path d="M16.212.03c.275 0 .534.104.733.293l6.36 6.158c.13.127.208.292.261.464a.735.735 0 01.058.285v14.767c0 .9-.774 1.66-1.691 1.66H7.314c-.9 0-1.69-.776-1.69-1.66l.04-3.328h-2.76A2.913 2.913 0 010 15.758v-4.91a2.913 2.913 0 012.904-2.912h2.72V1.691c0-.87.806-1.66 1.69-1.66h8.898zm-1.056 1.462H7.314c-.087 0-.225.132-.232.202v6.242h7.637a2.91 2.91 0 012.905 2.911v4.911a2.91 2.91 0 01-2.905 2.91H7.123l-.04 3.335c0 .06.12.192.231.192h14.619v.003c.117 0 .232-.114.232-.201V8.276h-2.777c-1.217 0-2.265-.397-3.038-1.143-.78-.757-1.194-1.785-1.194-2.978V1.492zm-.437 7.906H2.904c-.8 0-1.449.652-1.449 1.452v4.911c0 .8.65 1.452 1.45 1.452h11.814c.8 0 1.45-.652 1.45-1.452v-4.91c0-.8-.65-1.453-1.45-1.453zm-10.43 2v2.777c0 .484-.08.746-.279.944-.178.172-.46.252-.9.252-.192 0-.32-.013-.6-.05l-.063-.679c.178.034.377.047.46.047.377 0 .495-.1.495-.534v-2.757h.887zm9.476-.074c.386 0 .847.081 1.099.189l-.114.648a3.468 3.468 0 00-.921-.14c-.787 0-1.11.466-1.11 1.313 0 .437.057.797.229 1.036.141.198.376.312.753.312.141 0 .336-.016.474-.04v-.82h-.548v-.639h1.428v1.987c-.37.114-.96.198-1.388.198-1.398.003-1.872-.766-1.872-2 0-1.217.642-2.044 1.97-2.044zm-7.311.074c.608 0 .995.084 1.247.32.212.195.312.494.312.91 0 .417-.097.73-.289.945-.228.256-.581.377-1.092.377h-.625v1.344h-.888v-3.896h1.335zm4.813 0l-.067.642H9.526v.945h1.338v.665H9.526v.995h1.771v.642H8.64v-3.889h2.628zm-4.85.642H6v1.24h.44c.286 0 .404-.04.518-.147.1-.101.155-.27.155-.494 0-.212-.047-.363-.148-.46-.108-.098-.273-.139-.548-.139zM16.618 2.034V4.15c0 .79.26 1.456.747 1.93.497.48 1.196.732 2.027.732h2.161l-4.935-4.78z" fill="#5CB615" fill-rule="nonzero"/></svg>
